svg/coffee_maker.svg

<svg xmlns="http://www.w3.org/2000/svg" viewBox="0 0 24 24"><path d="M21 1v3H7v17h14v2H2V3c0-1.11.89-2 2-2zm1 12v2c0 1.11-.89 2-2 2h-2c0 3-3 3-4 3s-4 0-4-3v-6h10a2 2 0 0 1 2 2m-2 0h-2v2h2zm-3-4 2-4H9l2 4z"/></svg>

<?xml version="1.0" encoding="UTF-8"?><!DOCTYPE svg PUBLIC "-//W3C//DTD SVG 1.1//EN" "http://www.w3.org/Graphics/SVG/1.1/DTD/svg11.dtd"><svg xmlns="http://www.w3.org/2000/svg" xmlns:xlink="http://www.w3.org/1999/xlink" version="1.1" id="mdi-coffee-maker" width="24" height="24" viewBox="0 0 24 24"><path d="M21 1V4H7V21H21V23H2V3C2 1.89 2.89 1 4 1H21M22 13V15C22 16.11 21.11 17 20 17H18C18 20 15 20 14 20S10 20 10 17V11H20C21.11 11 22 11.9 22 13M20 13H18V15H20V13M17 9L19 5H9L11 9H17Z" /></svg>
